X: 19353
T: Jack Rowe
R: reel
M: 4/4
K: Gmajor
|:A3F GFED|(3EFG AB cABA|GBdg egdB|GBAF GFED|
FAAF GFED|(3EFG AB c2BA|GBdB AcBA|GEDE G4:|
|:g3e fedf|efge fedf|eBB2 efge|fdef g2 (3def|
gbag eage|dBBA BAGF|GBdB AcBA|GEDE G4:|

